images/gee-icon.svg

<svg height="250" viewBox="0 0 250 250" width="250" xmlns="http://www.w3.org/2000/svg"><path d="m125 0c69.035156 0 125 55.964844 125 125s-55.964844 125-125 125-125-55.964844-125-125 55.964844-125 125-125zm0 0" fill="#334b63" fill-rule="evenodd"/><g fill="#fff"><path d="m100.671875 88.378906c-2.128906 0-3.855469-1.574218-3.855469-3.511718s1.726563-3.511719 3.855469-3.511719h47.945313c2.128906 0 3.855468 1.574219 3.855468 3.511719s-1.726562 3.511718-3.855468 3.511718zm0 0"/><path d="m117.804688 190.945312c-2.128907 0-3.855469-1.574218-3.855469-3.511718s1.726562-3.511719 3.855469-3.511719h14.539062c2.128906 0 3.855469 1.574219 3.855469 3.511719s-1.726563 3.511718-3.855469 3.511718zm0 0"/><path d="m115.660156 109.457031c-2.128906 0-3.855468-1.570312-3.855468-3.507812s1.726562-3.511719 3.855468-3.511719h17.96875c2.128906 0 3.855469 1.574219 3.855469 3.511719s-1.726563 3.507812-3.855469 3.507812zm0 0"/><path d="m106.605469 165.859375c1.492187-1.765625 4.136719-1.984375 5.898437-.492187 1.765625 1.492187 1.984375 4.136718.492188 5.898437l-23.339844 27.625c-.148438.257813-.214844.570313-.214844.902344 0 .410156.097656.816406.273438 1.175781.167968.351562.382812.636719.625.820312.125.09375.269531.152344.410156.152344h68.5c.140625 0 .28125-.058594.410156-.152344.242188-.183593.457032-.472656.625-.820312.175782-.359375.273438-.765625.273438-1.175781 0-.332031-.066406-.648438-.214844-.902344l-59.726562-70.691406-2.066407-2.433594c-6.8125-7.992187-15.777343-18.503906-19.648437-28.960937-.398438-1.085938-.765625-2.203126-1.089844-3.351563-3.300781-11.628906-1.6875-23.734375 3.640625-33.988281 5.320313-10.226563 14.351563-18.632813 25.898437-22.90625 1.132813-.417969 2.316407-.804688 3.546876-1.15625 4.734374-1.34375 9.421874-2.015625 14.101562-2.015625v.019531c4.722656 0 9.410156.664062 14.105469 1.996094 1.230469.351562 2.410156.738281 3.542969 1.15625 11.550781 4.269531 20.582031 12.679687 25.898437 22.910156 5.328125 10.25 6.945313 22.355469 3.640625 33.988281-.324219 1.144531-.6875 2.261719-1.089844 3.347657-3.867187 10.453124-12.828125 20.960937-19.640625 28.953124l-4.238281 5c-1.40625 1.664063-2.796875 3.300782-4.644531 5.507813-1.484375 1.773437-4.125 2.007813-5.898438.523437-1.773437-1.484374-2.007812-4.125-.523437-5.898437 1.246094-1.484375 2.972656-3.523437 4.675781-5.539063l4.273437-5.035156c6.382813-7.484375 14.777344-17.332031 18.132813-26.394531.339844-.929687.640625-1.839844.890625-2.726563 2.699219-9.507812 1.363281-19.429687-3.015625-27.859374-4.394531-8.457032-11.839844-15.394532-21.34375-18.910157-.976563-.363281-1.953125-.683593-2.921875-.957031-4.003906-1.136719-7.941406-1.707031-11.84375-1.707031v.019531c-3.941406 0-7.878906.5625-11.839844 1.683594-.96875.277344-1.945312.597656-2.921875.960937-9.503906 3.515625-16.949219 10.453125-21.34375 18.910157-4.382812 8.429687-5.71875 18.351562-3.019531 27.859374.253906.886719.550781 1.796876.894531 2.726563 3.355469 9.066406 11.753907 18.917969 18.140625 26.40625l2.097656 2.464844 59.777344 70.753906-.007812.007813.136718.171874c1.414063 1.859376 2.035157 3.984376 2.035157 6.066407 0 1.667969-.40625 3.332031-1.125 4.816406-.722657 1.492187-1.796875 2.832031-3.117188 3.835937-1.554687 1.175782-3.414062 1.890626-5.457031 1.890626h-68.5c-2.039062 0-3.902344-.714844-5.457031-1.890626-1.320313-1.003906-2.390625-2.339843-3.117188-3.835937-.71875-1.484375-1.125-3.148437-1.125-4.816406 0-1.96875.554688-3.96875 1.804688-5.753907.105469-.167968.226562-.335937.359375-.492187zm0 0"/><path d="m115.660156 68.496094c-2.128906 0-3.855468-1.570313-3.855468-3.507813s1.726562-3.511719 3.855468-3.511719h17.96875c2.128906 0 3.855469 1.574219 3.855469 3.511719s-1.726563 3.507813-3.855469 3.507813zm0 0"/></g></svg>

<!-- Creator: CorelDRAW 2017 -->
<svg xmlns="http://www.w3.org/2000/svg" xmlns:xlink="http://www.w3.org/1999/xlink" width="250px" height="250px" viewBox="0 0 250 250" version="1.1">
<g id="surface1">
<path style=" stroke:none;fill-rule:evenodd;fill:rgb(20%,29.411766%,38.82353%);fill-opacity:1;" d="M 125 0 C 194.035156 0 250 55.964844 250 125 C 250 194.035156 194.035156 250 125 250 C 55.964844 250 0 194.035156 0 125 C 0 55.964844 55.964844 0 125 0 Z M 125 0 "/>
<path style=" stroke:none;fill-rule:nonzero;fill:rgb(100%,100%,100%);fill-opacity:1;" d="M 100.671875 88.378906 C 98.542969 88.378906 96.816406 86.804688 96.816406 84.867188 C 96.816406 82.929688 98.542969 81.355469 100.671875 81.355469 L 148.617188 81.355469 C 150.746094 81.355469 152.472656 82.929688 152.472656 84.867188 C 152.472656 86.804688 150.746094 88.378906 148.617188 88.378906 Z M 100.671875 88.378906 "/>
<path style=" stroke:none;fill-rule:nonzero;fill:rgb(100%,100%,100%);fill-opacity:1;" d="M 117.804688 190.945312 C 115.675781 190.945312 113.949219 189.371094 113.949219 187.433594 C 113.949219 185.496094 115.675781 183.921875 117.804688 183.921875 L 132.34375 183.921875 C 134.472656 183.921875 136.199219 185.496094 136.199219 187.433594 C 136.199219 189.371094 134.472656 190.945312 132.34375 190.945312 Z M 117.804688 190.945312 "/>
<path style=" stroke:none;fill-rule:nonzero;fill:rgb(100%,100%,100%);fill-opacity:1;" d="M 115.660156 109.457031 C 113.53125 109.457031 111.804688 107.886719 111.804688 105.949219 C 111.804688 104.011719 113.53125 102.4375 115.660156 102.4375 L 133.628906 102.4375 C 135.757812 102.4375 137.484375 104.011719 137.484375 105.949219 C 137.484375 107.886719 135.757812 109.457031 133.628906 109.457031 Z M 115.660156 109.457031 "/>
<path style=" stroke:none;fill-rule:nonzero;fill:rgb(100%,100%,100%);fill-opacity:1;" d="M 106.605469 165.859375 C 108.097656 164.09375 110.742188 163.875 112.503906 165.367188 C 114.269531 166.859375 114.488281 169.503906 112.996094 171.265625 L 89.65625 198.890625 C 89.507812 199.148438 89.441406 199.460938 89.441406 199.792969 C 89.441406 200.203125 89.539062 200.609375 89.714844 200.96875 C 89.882812 201.320312 90.097656 201.605469 90.339844 201.789062 C 90.464844 201.882812 90.609375 201.941406 90.75 201.941406 L 159.25 201.941406 C 159.390625 201.941406 159.53125 201.882812 159.660156 201.789062 C 159.902344 201.605469 160.117188 201.316406 160.285156 200.96875 C 160.460938 200.609375 160.558594 200.203125 160.558594 199.792969 C 160.558594 199.460938 160.492188 199.144531 160.34375 198.890625 L 100.617188 128.199219 L 98.550781 125.765625 C 91.738281 117.773438 82.773438 107.261719 78.902344 96.804688 C 78.503906 95.71875 78.136719 94.601562 77.8125 93.453125 C 74.511719 81.824219 76.125 69.71875 81.453125 59.464844 C 86.773438 49.238281 95.804688 40.832031 107.351562 36.558594 C 108.484375 36.140625 109.667969 35.753906 110.898438 35.402344 C 115.632812 34.058594 120.320312 33.386719 125 33.386719 L 125 33.40625 C 129.722656 33.40625 134.410156 34.070312 139.105469 35.402344 C 140.335938 35.753906 141.515625 36.140625 142.648438 36.558594 C 154.199219 40.828125 163.230469 49.238281 168.546875 59.46875 C 173.875 69.71875 175.492188 81.824219 172.1875 93.457031 C 171.863281 94.601562 171.5 95.71875 171.097656 96.804688 C 167.230469 107.257812 158.269531 117.765625 151.457031 125.757812 L 147.21875 130.757812 C 145.8125 132.421875 144.421875 134.058594 142.574219 136.265625 C 141.089844 138.039062 138.449219 138.273438 136.675781 136.789062 C 134.902344 135.304688 134.667969 132.664062 136.152344 130.890625 C 137.398438 129.40625 139.125 127.367188 140.828125 125.351562 L 145.101562 120.316406 C 151.484375 112.832031 159.878906 102.984375 163.234375 93.921875 C 163.574219 92.992188 163.875 92.082031 164.125 91.195312 C 166.824219 81.6875 165.488281 71.765625 161.109375 63.335938 C 156.714844 54.878906 149.269531 47.941406 139.765625 44.425781 C 138.789062 44.0625 137.8125 43.742188 136.84375 43.46875 C 132.839844 42.332031 128.902344 41.761719 125 41.761719 L 125 41.78125 C 121.058594 41.78125 117.121094 42.34375 113.160156 43.464844 C 112.191406 43.742188 111.214844 44.0625 110.238281 44.425781 C 100.734375 47.941406 93.289062 54.878906 88.894531 63.335938 C 84.511719 71.765625 83.175781 81.6875 85.875 91.195312 C 86.128906 92.082031 86.425781 92.992188 86.769531 93.921875 C 90.125 102.988281 98.523438 112.839844 104.910156 120.328125 L 107.007812 122.792969 L 166.785156 193.546875 L 166.777344 193.554688 L 166.914062 193.726562 C 168.328125 195.585938 168.949219 197.710938 168.949219 199.792969 C 168.949219 201.460938 168.542969 203.125 167.824219 204.609375 C 167.101562 206.101562 166.027344 207.441406 164.707031 208.445312 C 163.152344 209.621094 161.292969 210.335938 159.25 210.335938 L 90.75 210.335938 C 88.710938 210.335938 86.847656 209.621094 85.292969 208.445312 C 83.972656 207.441406 82.902344 206.105469 82.175781 204.609375 C 81.457031 203.125 81.050781 201.460938 81.050781 199.792969 C 81.050781 197.824219 81.605469 195.824219 82.855469 194.039062 C 82.960938 193.871094 83.082031 193.703125 83.214844 193.546875 Z M 106.605469 165.859375 "/>
<path style=" stroke:none;fill-rule:nonzero;fill:rgb(100%,100%,100%);fill-opacity:1;" d="M 115.660156 68.496094 C 113.53125 68.496094 111.804688 66.925781 111.804688 64.988281 C 111.804688 63.050781 113.53125 61.476562 115.660156 61.476562 L 133.628906 61.476562 C 135.757812 61.476562 137.484375 63.050781 137.484375 64.988281 C 137.484375 66.925781 135.757812 68.496094 133.628906 68.496094 Z M 115.660156 68.496094 "/>
</g>
</svg>
